X:1
T:Title
%%score 1 { 2 | 3 }
L:1/8
Q:1/4=93
M:2/4
K:F
V:1 treble nm="Grand Piano, Soprano"
V:2 treble nm="Choir Pad, Gentle Shepherd, Save Me"
V:3 bass 
V:1
 [FA]3 [FA] | [FB][FA] [CG][CF] | [FA] [Fc]3 | [Ec]3 [Ed] | [Ec][EG] [Ec][EB] | [FA]4 | %6
w: By~William~James~Kirkpatrick *||||||
 [FA]3 [FA] | [FB][FA] [CG][CF] | [FA] [Fc]3 | [Fd]3 [Fd] | [Fc] [FA]3 | [EG]3 [CF] | [CF]4 | %13
w: |||||||
 [EG]3 [FA] | [GB]4 | [Gc]3 [GB] | [FA]4 | F3 F | FF [EB][FA] | [EG]4 | [FA]3 [FA] | %21
w: ||||||||
 [FB][FA] [CG][CF] | [FA] [Fc]3 | [Fd]3 [Fd] | [Fc] [FA]3 | [EG]3 [CF] | [CF]4- | [CF]4 |] %28
w: |||||||
V:2
 C3 C | DC B,[K:bass]A, | C A,3 | G,3 G, | G,G, G,[K:treble]C | C4 | C3 C | DC[K:bass] B,A, | %8
 C A,3 | B,3 B, | A, C3 | B,3 A, | A,4 | C3 C | C4 | G,3 C | C4 | C3 C | DC CC | C4 | C3 C | %21
 DC[K:bass] B,A, | C A,3 | B,3 B, | A, C3 | B,3 A, | A,4- | A,4 |] %28
V:3
 F,3 F, | F,F, F,F, | F, F,3 | C,3 C, | C,C, C,C, | F,4 | F,3 F, | F,F, F,F, | F, F,3 | B,,3 D, | %10
 F, F,3 | C,3 [F,,F,] | [F,,F,]4 | C,3 C, | C,4 | E,3 E, | F,4 | A,3 A, | B,A, G,F, | C,4 | %20
 F,3 F, | F,F, F,F, | F, F,3 | B,,3 D, | F, F,3 | C,3 [F,,F,] | [F,,F,]4- | [F,,F,]4 |] %28

